X:2
T:Desafinado
C:Antonio Carlos Jobim
L:1/4
M:C
I:linebreak $
K:F
"F" z C/D/ E/ F3/2 | E D ^C D |"G7b5" F ^C ^C2 | z4 |$"Gm" z D/E/ F/ G3/2 |
"C7" F E ^D E Ox/||"Aø" c ^D ^D2 |"D7" z4 ||1$"Gm" z/ D/ c/B/"Gm/F" A G |
"Eø" B A"A7" ^D E ||[K:D]"D" F A F D |"D7" ^D4 ||$[K:F]"Dø" z _A/G/ F D |"G7" _A G F D |
"F#" F ^C ^C2 | z4 :|2$"Gm" c/B/"Am" A G |"Bbm" B A"Eb7" G F |"Am" G F"Dm" G F ||
[K:A]"Bø" A2"E7" z2 |$"A" E F E F |"A6" E D C D |"Bm" E B, E2 |"E7" z2 z C |$"C#m" E F E F |
"D" E D C D |"Bm" E B, E2 |"E7" z4 |$"A" E F G A |"A6" B A C D |"Bm" E/F/E/F/ E2 |"E7" z2 E ||$
[K:F]"Em" G A G A |"Eb7" G F E F |"Dm" G D G2 |"G7" z2 z/ D/ G/A/ |$"Gm" B A B A |"Ab7" c B A B |
"G7" G4 |"Gb7""_D.C. al Coda" z4 ||$Ox/"Aø" d _d c =B |"D7" B d A ^G/A/ |"Gm" c _c"Am" B A |
"Bbm" B A"Eb7" G F |$"Am" A2"Dm" z F |"G7" G2 D E |"Bø" F/F/F/F/ F F |"Bbm" F2 D E |
"A+" F/F/F/F/ F c |$"Ab7" B2 D E |"G7" F/F/F/F/ F F |"Gb" F E ^D E |"F" G F F2 | z4 |]


